src/dsmComponents/Icons/device-smartwatch-24px.svg

<svg width="20" height="24" xmlns="http://www.w3.org/2000/svg" xmlns:xlink="http://www.w3.org/1999/xlink"><defs><path d="M18 6a3.001 3.001 0 00-2.455-2.945L14.97.757A1 1 0 0014 0H4a1 1 0 00-.97.757l-.575 2.298A3.001 3.001 0 000 6v12a3.001 3.001 0 002.455 2.945l.574 2.298c.112.445.512.757.971.757h10a1 1 0 00.97-.757l.574-2.298A3 3 0 0018 18v-3h2V9h-2V6zm-2 12c0 .551-.449 1-1 1H3c-.551 0-1-.449-1-1V6c0-.551.449-1 1-1h12c.551 0 1 .449 1 1v12z" id="device-smartwatch-24px_svg__a"/></defs><use fill="#737373" xlink:href="#device-smartwatch-24px_svg__a" fill-rule="evenodd"/></svg>

<?xml version="1.0" encoding="UTF-8"?>
<svg width="20px" height="24px" viewBox="0 0 20 24" version="1.1" xmlns="http://www.w3.org/2000/svg" xmlns:xlink="http://www.w3.org/1999/xlink">
    <!-- Generator: Sketch 59.1 (86144) - https://sketch.com -->
    <title>device-smartwatch-24px</title>
    <desc>Created with Sketch.</desc>
    <defs>
        <path d="M18,6 C18,4.532 16.939,3.313 15.545,3.055 L14.97,0.757 C14.859,0.312 14.459,0 14,0 L4,0 C3.541,0 3.141,0.312 3.03,0.757 L2.455,3.055 C1.061,3.313 0,4.532 0,6 L0,18 C0,19.468 1.061,20.687 2.455,20.945 L3.029,23.243 C3.141,23.688 3.541,24 4,24 L14,24 C14.459,24 14.859,23.688 14.97,23.243 L15.544,20.945 C16.939,20.687 18,19.468 18,18 L18,15 L20,15 L20,9 L18,9 L18,6 Z M16,18 C16,18.551 15.551,19 15,19 L3,19 C2.449,19 2,18.551 2,18 L2,6 C2,5.449 2.449,5 3,5 L15,5 C15.551,5 16,5.449 16,6 L16,18 Z" id="path-1"></path>
    </defs>
    <g id="Final" stroke="none" stroke-width="1" fill="none" fill-rule="evenodd">
        <g id="All-Nucleo-Icons" transform="translate(-610.000000, -2460.000000)">
            <g id="Solo/Nucleo/24px/device-smartwatch" transform="translate(608.000000, 2460.000000)">
                <g id="smartwatch" transform="translate(2.000000, 0.000000)">
                    <g id="Colour/Default-Colour">
                        <mask id="mask-2" fill="white">
                            <use xlink:href="#path-1"></use>
                        </mask>
                        <use id="Mask" fill="#000000" fill-rule="nonzero" xlink:href="#path-1"></use>
                        <g id="colour/neutral/chia" mask="url(#mask-2)" fill="#737373">
                            <g transform="translate(-22.000000, -20.000000)" id="Colour">
                                <rect x="0" y="0" width="64" height="64"></rect>
                            </g>
                        </g>
                    </g>
                </g>
            </g>
        </g>
    </g>
</svg>
